X:3
T:A Guid New Year
C:Joe Buchanan's Scottish Tome - Page 066.2
I:066 2
R:Air
Z:Carl Allison
L:1/8
M:4/4
K:Cmaj
G2|c2 e2 c3 G|(FE)(DC) G3 G|A F3 c3 E|{E}D4 z2 G2|
c2 e2 c3 G|(FE)(DC) G2 zG|A c3 B2 d2|(c4 !fine!c2) B2|
c3 B A2 G2|F3 F E2 E2|A3 B c2 B2|A4 z2B2|
c3 B A2 G2|^F2 A2 d2 z c|B d3 (d>c)(AB)|G6 z2:|
